X: 1
T: Shottish
O: Scandinavia
M: 2/4
L: 1/16
K: D
|: "D"A2f2 fgfe | "G"d2B2 B4 | "A7"A2AB cABc |1,3 "D"dfed cBAF :|2,4 "D"dedc "fine"d4 :|
K: A
|: "A"{cd}efec efec | eagf [e2e4]dc | "E7"B2Bc d2cB |1,3 "A"ABcd e4 :|2 "A"A2e2 A4 :|4 "A"A2=g2 "d.C."f2e2 |]
